public/assets/standards/sci-ai/explore-feat-icon-2.svg

<svg width="55" height="55" viewBox="0 0 55 55" fill="none" xmlns="http://www.w3.org/2000/svg">
<g clip-path="url(#clip0_80_7829)">
<path d="M55 27.5H44.57C44.57 27.5 44.56 28.32 44.53 28.73C43.9 37.58 36.52 44.57 27.51 44.57C18.46 44.57 11.06 37.53 10.48 28.62C10.46 28.25 10.44 27.5 10.44 27.5H0C0 27.5 0 28.24 0.02 28.61C0.6 43.28 12.68 55 27.5 55C42.24 55 54.27 43.41 54.97 28.84C54.99 28.39 55 27.5 55 27.5Z" fill="#003834"/>
<path d="M0 27.5H10.43C10.43 18.07 18.07 10.43 27.5 10.43C36.93 10.43 44.57 18.07 44.57 27.5H55C55 12.31 42.69 0 27.5 0C12.31 0 0 12.31 0 27.5Z" fill="#006D68"/>
<path d="M27.5001 40.4401C34.6466 40.4401 40.4401 34.6466 40.4401 27.5001C40.4401 20.3535 34.6466 14.5601 27.5001 14.5601C20.3535 14.5601 14.5601 20.3535 14.5601 27.5001C14.5601 34.6466 20.3535 40.4401 27.5001 40.4401Z" fill="#ACCA53"/>
<path d="M28.8202 27.5L27.5002 40.44L26.1802 27.5H28.8202Z" fill="white"/>
<path d="M26.1802 27.5001L27.5002 14.5601L28.8202 27.5001H26.1802Z" fill="#003834"/>
</g>
<defs>
<clipPath id="clip0_80_7829">
<rect width="55" height="55" fill="white"/>
</clipPath>
</defs>
</svg>

<svg xmlns="http://www.w3.org/2000/svg" width="55" height="55" fill="none" viewBox="0 0 55 55"><g clip-path="url(#a)"><path fill="#003834" d="M55 27.5H44.57s-.01.82-.04 1.23c-.63 8.85-8.01 15.84-17.02 15.84-9.05 0-16.45-7.04-17.03-15.95-.02-.37-.04-1.12-.04-1.12H0s0 .74.02 1.11C.6 43.28 12.68 55 27.5 55c14.74 0 26.77-11.59 27.47-26.16.02-.45.03-1.34.03-1.34"/><path fill="#006d68" d="M0 27.5h10.43c0-9.43 7.64-17.07 17.07-17.07s17.07 7.64 17.07 17.07H55C55 12.31 42.69 0 27.5 0S0 12.31 0 27.5"/><path fill="#acca53" d="M27.5 40.44c7.147 0 12.94-5.793 12.94-12.94S34.647 14.56 27.5 14.56 14.56 20.354 14.56 27.5c0 7.147 5.794 12.94 12.94 12.94"/><path fill="#fff" d="M28.82 27.5 27.5 40.44 26.18 27.5z"/><path fill="#003834" d="m26.18 27.5 1.32-12.94 1.32 12.94z"/></g><defs><clipPath id="a"><path fill="#fff" d="M0 0h55v55H0z"/></clipPath></defs></svg>
